svgs/solid/objects-align-top.svg

<svg xmlns="http://www.w3.org/2000/svg" viewBox="0 0 512 512"><!--! Font Awesome Pro 6.4.2 by @fontawesome - https://fontawesome.com License - https://fontawesome.com/license (Commercial License) Copyright 2023 Fonticons, Inc. --><path d="M24 0H488c13.3 0 24 10.7 24 24s-10.7 24-24 24H24C10.7 48 0 37.3 0 24S10.7 0 24 0zM64 176c0-26.5 21.5-48 48-48h64c26.5 0 48 21.5 48 48V464c0 26.5-21.5 48-48 48H112c-26.5 0-48-21.5-48-48V176zm224 0c0-26.5 21.5-48 48-48h64c26.5 0 48 21.5 48 48V336c0 26.5-21.5 48-48 48H336c-26.5 0-48-21.5-48-48V176z"/></svg>

<svg xmlns="http://www.w3.org/2000/svg" viewBox="0 0 512 512"><!--! Font Awesome Pro 6.1.1 by @fontawesome - https://fontawesome.com License - https://fontawesome.com/license (Commercial License) Copyright 2022 Fonticons, Inc. --><path d="M488 0C501.3 0 512 10.75 512 24C512 37.25 501.3 48 488 48H24C10.75 48 0 37.25 0 24C0 10.75 10.75 0 24 0H488zM64 176C64 149.5 85.49 128 112 128H176C202.5 128 224 149.5 224 176V464C224 490.5 202.5 512 176 512H112C85.49 512 64 490.5 64 464V176zM288 176C288 149.5 309.5 128 336 128H400C426.5 128 448 149.5 448 176V336C448 362.5 426.5 384 400 384H336C309.5 384 288 362.5 288 336V176z"/></svg>
